**kern	**kern	**kern	**kern
*part4	*part3	*part2	*part1
*staff4	*staff3	*staff2	*staff1
*I"Cello	*I"Viola	*I"Violin II	*I"Violin I
*I'Vc.	*I'Vla.	*I'Vln. II	*I'Vln. I
*clefF4	*clefC3	*clefG2	*clefG2
*k[b-e-]	*k[b-e-]	*k[b-e-]	*k[b-e-]
*B-:	*B-:	*B-:	*B-:
*M6/8	*M6/8	*M6/8	*M6/8
!	!	!	!LO:TX:a:t=Presto
8BB-	8B-	8B-	8B-
=1	=1	=1	=1
4BB-	4B-	4B-	4B-
8D	8d	8d	8d
4D	4d	4d	4d
8F	8f	8f	8f
=2	=2	=2	=2
4F	4f	4f	4f
8B-	8b-	8b-	8b-
4B-	4b-	4b-	4b-
8r	8r	8dd	8ff
=3	=3	=3	=3
4r	4r	4dd	(>8ffL
.	.	.	8bb-)
8r	8r	8ee-	8gg'J
4r	4r	4dd	4ff
8F	8b-	8dd	8r
=4	=4	=4	=4
8FL	(>8aL	(>8ccL	4r
8F	8b-	8dd	.
8FJ	8ccJ)	8ee-J)	8r
4BB-	4b-	4dd	4r
8BB-	8B-	8B-	8B-
=5	=5	=5	=5
4BB-	4B-	4B-	4B-
8D	8d	8d	8d
4D	4d	4d	4d
8F	8f	8f	8f
=6	=6	=6	=6
!!linebreak:original
4F	4f	4f	4f
8B-	8b-	8b-	8b-
4B-	4b-	4b-	4b-
8r	8r	8b-	.
=7	=7	=7	=7
.	.	.	(>8ccL
4r	4r	4a	8ff)
.	.	.	8dd'J
8r	8r	8b-	4cc
4r	4r	4a	.
.	.	.	8r
8F	8a	8cc	.
=8	=8	=8	=8
.	.	.	4r
8FL	(>8aL	(>8ccL	.
8F	8b-	8dd	8r
8FJ	8ccJ)	8ee-J)	4r
4BB-	4b-	4dd	.
.	.	.	8dd
8r	8r	8r	.
=9	=9	=9	=9
.	.	.	(>8bb-L
8r	4r	8ddL	8gg)
8r	.	8b-	8een'J
8c'	8b-'	8g'J	(>8ffL
(>8AL	(>8aL	(<8fL	8cc)
8FJ)	8fJ)	8aJ)	8cc'J
8r	8r	8r	.
=10	=10	=10	=10
.	.	.	(>8ggL
8r	4r	(<8b-L	8een)
8r	.	8g)	8b-'J
8C'	8g'	8en'J	(>8aL
(>8FL	(>8fL	4f	8cc)
8AJ)	8aJ)	.	8cc'J
8r	8r	8r	.
=11	=11	=11	=11
.	.	.	(>8ddL
4.B-	4.b-	(<8dL	8b-)
.	.	8g)	8g'J
.	.	8b-'J	(<8ccL
4.A	4.a	(<8B-L	8a)
.	.	8en)	8f'J
.	.	8e'J	.
=12	=12	=12	=12
!!linebreak:original
.	.	.	(<8enL
!!linebreak:original
4G	4g	4f	8b-)
.	.	.	8b-'J
8C	8c	8r	(>8b-L
4F	4f	4r	8a)
.	.	.	8cc'J
8r	8r	8r	.
=13	=13	=13	=13
.	.	.	(>8bb-L
8CL	4.g	4r	8gg)
8c	.	.	8een'J
8B-J	.	8r	(>8ffL
8AL	8aL	(<8cL	8cc)
8G	8g	8en)	8cc'J
8FJ	8fJ	8f'J	.
=14	=14	=14	=14
.	.	.	(>8ggL
8EnL	8enL	(<8cL	8een)
8C	8c	8g)	8b-'J
8EJ	8eJ	8g'J	(>8aL
4F	4f	(<8fL	8cc)
.	.	8a)	8cc'J
8r	8r	8a'J	.
=15	=15	=15	=15
.	.	.	8dd'L
2.r	2.r	8b-'L	(>8dd
.	.	(>8b-	8eenJ)
.	.	8ccJ)	8ff'L
.	.	8dd'L	(>8ff
.	.	(>8dd	8ggJ)
.	.	8eenJ)	.
=16	=16	=16	=16
.	.	.	8aa'L
2.r	2.r	8ff'L	(>8aa
.	.	(>8ff	8bb-J)
.	.	8ggJ)	4ccc
.	.	4aa	.
.	.	.	8r
.	.	8r	.
=17	=17	=17	=17
.	.	.	(>16bb-LL
.	.	.	16gg
8CL	8gL	8en'L	16een)
.	.	.	16cc'
8C	8g	8e'	16b-'
.	.	.	16g'JJ
8CJ	8gJ	8e'J	4f
4.C	8aL	8f'L	.
.	8b-J	(<16ccL	8r
.	.	16a)	.
.	.	(<16g	.
.	.	16fJJ)	.
=18	=18	=18	=18
!!linebreak:original
.	8gL	.	(>16bb-LL
.	.	.	16gg
!!linebreak:original
4.C	8g	8en'L	16een)
.	.	.	16cc'
.	8gJ	8e'	16b-'
.	.	.	16g'JJ
.	8aL	8e'J	4f
4.C	8a	8f'L	.
.	8aJ	(<16ccL	8r
.	.	16a)	.
.	.	(<16g	.
.	.	16fJJ)	.
=19	=19	=19	=19
.	8gL	.	(>16bb-LL
.	.	.	16gg
4.C	8g	8enL	16een)
.	.	.	16cc'
.	8gJ	8e	16b-'
.	.	.	16g'JJ
.	8aL	8eJ	16fLL
.	.	.	16a
4.C	8a	8fL	16cc
.	.	.	16ee-X
.	8aJ	8f	16ff
.	.	.	16aaJJ
.	.	8fJ	.
=20	=20	=20	=20
.	8gL	.	(>16bb-LL
.	.	.	16gg
8CL	8g	8enL	16een)
.	.	.	16cc'
8C	8cJ	8e	16b-'
.	.	.	16g'JJ
8CJ	8f	8eJ	4f
4F	8r	4f	.
.	8A	.	8A
8AA	.	8A	.
=21	=21	=21	=21
.	8B-'L	.	8B-'L
8BB-'L	(<8B-	8B-'L	(<8B-
(<8BB-	8cJ)	(<8B-	8cJ)
8CJ)	.	8cJ)	(<8dL
8DL	.	(<8dL	8f)
8F)	.	8f)	8A'J
8AA'J	.	8A'J	.
=22	=22	=22	=22
.	4B-	.	.
.	8G	.	.
.	8A	.	(<8B-L
4BB-	8r	(<8B-L	8g)
.	(>8c	8g)	8en'J
8C	.	8en'J	8f
8F	.	8f	8r
8r	.	8r	8gM
(8C	.	8e	.
=23	=23	=23	=23
.	8f)	.	.
.	8r	.	.
.	8c	.	.
.	4f	.	8f
8F)	.	8f	8r
8r	(>8c	8r	8gM
(8C	.	8en	8f'L
4F	.	8f'L	8f'
.	.	8f'	8gMJ
(>8C	.	8eJ	.
=24	=24	=24	=24
!!linebreak:original
.	4f)	.	.
.	4r	.	.
!!linebreak:original
.	.	.	4f
!!linebreak:original
4F)	8r	4f	.
4r	.	4r	.
.	.	.	8r
8r	.	8r	.
=:|!|:	=:|!|:	=:|!|:	=:|!|:
.	8r	.	.
.	.	.	8ddd
8r	.	8r	.
=25	=25	=25	=25
.	4r	.	.
.	8r	.	.
.	4r	.	(>16dddLL
.	.	.	16bbn
4r	.	4r	16gg)
.	.	.	16ff'
.	8Bn	.	16dd'
.	.	.	16bn'JJ
8r	.	8r	4g
4r	.	4r	.
.	.	.	8r
8G	.	8d	.
=26	=26	=26	=26
.	(>8BnL	.	.
.	8c	.	.
.	8dJ)	.	.
.	4c	.	4r
8GL	.	(<8dL	.
8G	8r	8e-	8r
8GJ	.	8fJ)	4r
4C	.	4e-	.
.	.	.	8ccc
8r	.	8r	.
=27	=27	=27	=27
.	4r	.	.
.	8r	.	.
.	4r	.	(>16cccLL
.	.	.	16aa
4r	.	4r	16ff)
.	.	.	16ee-'
.	8A	.	16cc'
.	.	.	16a'JJ
8r	.	8r	4f
4r	.	4r	.
.	.	.	8r
8F	.	8c	.
=28	=28	=28	=28
.	(<8AL	.	.
.	8B-	.	.
.	8cJ)	.	.
.	4B-	.	4r
8FL	.	(<8cL	.
8F	8B-	8d	8r
8FJ	.	8e-J)	4r
4BB-	.	4d	.
.	.	.	8b-'
8D	.	8r	.
=29	=29	=29	=29
!!linebreak:original
.	(<8B-L	.	.
.	8c)	.	.
.	8c'J	.	.
!!linebreak:original
.	(>8cL	.	(<8gL
!!linebreak:original
4.E-	8d)	4r	8e-J)
.	8d'J	.	8r
.	.	8cc'	4r
4.F	.	8aL	.
.	.	8fJ	8dd'
.	.	8r	.
=30	=30	=30	=30
.	8dL	.	.
.	8e-	.	.
.	8e-'J	.	.
.	(>8e-L	.	(<8b-L
4.G	8f)	4r	8gJ)
.	8c'J	.	8r
.	.	8ee-'	4r
4.A	.	(>8ccL	.
.	.	8aJ)	8ff
.	.	8r	.
=31	=31	=31	=31
.	4d	.	.
.	8r	.	.
.	4r	.	8ff'L
4B-	.	4.r	8ff'
.	8b-	.	8ff'J
8r	.	.	(8bb-L
4r	.	4r	8ffJ)
.	.	.	8r
8F	.	8dd	.
=32	=32	=32	=32
.	(>8aL	.	.
.	8b-	.	.
.	8ccJ)	.	.
.	8qqcc/	.	.
.	4b-	.	4r
8FL	.	(>8ccL	.
8F	8r	8dd	8r
8FJ	.	8ee-J)	4r
.	.	8qqee-/	.
4B-	.	4dd	.
.	.	.	8ff
8r	.	8r	.
=33	=33	=33	=33
.	4r	.	.
.	8r	.	.
.	4r	.	8ffL
4r	.	8dd	(>16ggL
.	.	.	16ff)
.	8dd	8r	(>16gg
.	.	.	16ffJJ)
8r	.	8r	(>8bb-L
4r	.	4r	8ffJ)
.	.	.	8r
8F	.	8ff	.
=34	=34	=34	=34
.	(>8ddL	.	.
.	8cc	.	.
.	8b-J)	.	.
.	4a	.	4r
8FL	.	(>8ffL	.
8F	8r	8ee-	8r
8FJ	.	8ddJ)	4r
4F	.	4cc	.
.	.	.	8ff'
8r	.	8r	.
=35	=35	=35	=35
!!linebreak:original
.	4r	.	.
.	8a'	.	.
!!linebreak:original
.	(>8b-L	.	(>8gg-XL
!!linebreak:original
8r	8aJ)	4r	8ffJ)
8r	8r	.	8r
8F'	.	8cc'	4r
(>8EnL	.	(>8dd-XL	.
8FJ)	.	8ccJ)	8ff'
8r'	.	8r	.
=36	=36	=36	=36
.	4r	.	.
.	8a'	.	.
.	(>8b-L	.	(>8gg-XL
8r	8a)	4r	8ffJ)
8r	8fJ	.	8r
8F'	.	8cc'	4r
(>8EnL	.	(<8dd-XL	.
8F)	.	8cc)	8f
8F'J	.	8f'J	.
=37	=37	=37	=37
.	4b-	.	.
.	8f	.	.
.	4d-X	.	4b-
4B-	.	4b-	.
.	8B-	.	8f
8F	.	8f	4d-X
4D-X	.	4d	.
.	.	.	8B-
8BB-	.	8B-	.
=38	=38	=38	=38
.	(>8g-XL	.	.
.	8f)	.	.
.	8en'J	.	.
.	4f	.	(<8g-XL
(>8G-XL	.	(<8g-XL	8f)
8F)	8d-X	8f)	8en'J
8En'J	.	8en'J	4f
4F	.	4f	.
.	.	.	8b-
8r	.	8e	.
=39	=39	=39	=39
.	4c	.	.
.	8d-X	.	.
.	4c	.	(>8aL
4FF	.	4f	8ff)
.	8d-	.	8b-'J
8r	.	8en	(>8aL
4FF	.	4f	8ff)
.	.	.	8b-'J
8r	.	8e	.
=40	=40	=40	=40
.	4c	.	.
.	8r	.	.
.	4r	.	4a
4FF	.	4f	.
.	8B-	.	8r
8r	.	8r	4r
8r	.	4r	.
8r	.	.	8B-
8BB-	.	8B-	.
=41	=41	=41	=41
!!linebreak:original
.	4B-	.	.
.	8d	.	.
!!linebreak:original
.	4d	.	4B-
!!linebreak:original
4BB-	.	4B-	.
.	8f	.	8dn
8D	.	8d	4d
4D	.	4d	.
.	.	.	8f
8F	.	8f	.
=42	=42	=42	=42
.	4f	.	.
.	8b-	.	.
.	4b-	.	4f
4F	.	4f	.
.	8r	.	8b-
8B-	.	8b-	4b-
4B-	.	4b-	.
.	.	.	8ff
8r	.	8dd	.
=43	=43	=43	=43
.	4r	.	.
.	8r	.	.
.	4r	.	(8ffL
4r	.	4dd	8bb-)
.	8b-	.	8gg'J
8r	.	8ee-	4ff
4r	.	4dd	.
8F	.	8dd	.
=44	=44	=44	=44
.	(>8aL	.	.
.	8b-	.	.
.	8ccJ)	.	4r
.	4b-	.	.
8FL	.	8ccL	8r
8F	8B-	8dd	4r
8FJ	.	8ee-J	.
4BB-	.	4dd	8A
8BB-	.	8B-	.
=45	=45	=45	=45
.	4B-	.	.
.	8e-	.	4B-
.	4e-	.	.
4BB-	.	4B-	8e-
.	8g	.	4e-
8E-	.	8e-	.
4E-	.	4e-	8g
8G	.	8g	.
=46	=46	=46	=46
.	4g	.	.
.	8b-	.	4g
.	4b-	.	.
4G	.	4g	8b-
.	8r	.	4b-
8B-	.	8b-	.
4B-	.	4b-	.
8r	.	8ee-	.
=47	=47	=47	=47
!!linebreak:original
.	4r	.	.
!!linebreak:original
.	.	.	(>8ggL
.	8r	.	8bb-)
.	4r	.	8gg'J
!!linebreak:original
2.r	.	(>8ee-L	4ff
.	8b-	8gg)	.
.	.	8ee-'J	8r
.	.	4dd	.
.	.	8dd	.
=48	=48	=48	=48
.	(>8aL	.	.
.	8b-	.	4r
.	8ccJ)	.	.
.	4b-	.	8r
8FL	.	(>8ccL	4r
8F	8r	8dd	.
8FJ	.	8ee-J)	8dd
4B-	.	4dd	.
8r	.	8r	.
=49	=49	=49	=49
.	4.g	.	.
.	.	.	(>8bb-L
.	.	.	8gg)
.	4.f	.	8een'J
4.c	.	4.b-	(>8ffL
.	.	.	8cc)
.	.	.	8cc'J
4.F	.	4.a	.
=50	=50	=50	=50
.	4.f	.	.
.	.	.	(>8aa-XL
.	.	.	8ff)
.	4.e-	.	8dd'J
4.B-	.	4.a-X	(>8ee-L
.	.	.	8b-)
.	.	.	8b-'J
4.E-	.	4.g	.
=51	=51	=51	=51
.	4.ee-	.	.
.	.	.	(>8ggL
.	.	.	8ee-)
.	4.dd	.	8cc'J
4.e-	.	8gL	(8ffL
.	.	8cc	8dd)
.	.	8ee-'J	8b-'J
4.d	.	(<8fL	.
.	.	8b-)	.
.	.	8dd'J	.
=52	=52	=52	=52
.	4cc	.	.
.	.	.	(>8aL
.	8cc	.	8ee-)
.	4b-	.	8ee-J
4c	.	8e-L	(<8ddL
.	8r	8a	8b-)
8F	.	8aJ	8f'J
4B-	.	4b-	.
8r	.	8d	.
=53	=53	=53	=53
!!linebreak:original
.	2.r	.	.
!!linebreak:original
.	.	.	8g'L
.	.	.	(<8g
.	.	.	8aJ)
!!linebreak:original
2.r	.	8e-'L	8b-'L
.	.	(<8e-	(>8b-
.	.	8fJ)	8ccJ)
.	.	8g'L	.
.	.	(<8g	.
.	.	8aJ)	.
=54	=54	=54	=54
.	2.r	.	.
.	.	.	8dd'L
.	.	.	(>8dd
.	.	.	8ee-J)
2.r	.	8b-'L	4ff
.	.	(>8b-	.
.	.	8ccJ)	8r
.	.	4dd	.
.	.	8r	.
=55	=55	=55	=55
.	8cL	.	.
.	8c	.	(<16ee-LL
.	.	.	16cc
.	8cJ	.	16a)
.	.	.	16f'
.	8dL	.	16e-'
.	.	.	16c'JJ
8FL	8d	8A'L	8r
8F	8dJ	8A'	.
8FJ	.	8A'J	.
4.F	.	8B-L	.
.	.	(16fL	.
.	.	16d)	.
.	.	(16c	.
.	.	16B-JJ)	.
=56	=56	=56	=56
.	.	.	(<16ee-LL
.	.	.	16cc
.	8cL	.	16a)
.	.	.	16f'
.	8c	.	16e-'
.	.	.	16c'JJ
.	8cJ	.	4B-
.	8dL	.	.
8FL	8d	4.A	8r
8F	8dJ	.	.
8FJ	.	.	.
8FL	.	8B-L	.
8F	.	(16fL	.
.	.	16d)	.
8FJ	.	(16c	.
.	.	16B-JJ)	.
=57	=57	=57	=57
.	.	.	(<16ee-LL
.	.	.	16cc
.	8cL	.	16a)
.	.	.	16f'
.	8c	.	16e-'
.	.	.	16c'JJ
.	8cJ	.	(<16B-LL
.	.	.	16d
.	8dL	.	16f)
.	.	.	16a'
8FL	8d	4.A	16b-'
.	.	.	16dd'JJ
8F	8dJ	.	.
8FJ	.	.	.
4.F	.	4.B-	.
=58	=58	=58	=58
.	.	.	(<16ee-LL
.	.	.	16cc
.	8cL	.	16a)
.	.	.	16f'
.	8c	.	16e-'
.	.	.	16c'JJ
.	8FJ	.	4B-
.	4B-	.	.
8FL	.	4.A	8f
8F	8f	.	.
8FJ	.	.	.
4B-	.	4B-	.
8F	.	8f	.
=59	=59	=59	=59
!!linebreak:original
.	.	.	8g'L
!!linebreak:original
.	8g'L	.	(<8g
.	(>8g	.	8aJ)
.	8aJ)	.	(8b-L
.	(>8b-L	.	8dd)
!!linebreak:original
8G'L	8dd)	8g'L	8f'J
(>8G	8d'J	(8g	.
8AJ)	.	8aJ)	.
(>8B-L	.	(8b-L	.
8d)	.	8dd)	.
8D'J	.	8f'J	.
=60	=60	=60	=60
.	.	.	8gL
.	4e-	.	8cc
.	.	.	8a'J
.	8c	.	8b-
.	8d	.	8r
4E-	8r	(8gL	8ccM
.	(<8F	8cc)	.
8F	.	8a'J	.
8BB-L	.	8b-	.
8r	.	8r	.
(<8FFJ	.	8Am	.
=61	=61	=61	=61
.	.	.	8b-
.	8B-)	.	8r
.	8r	.	8ccM
.	(<8F	.	8b-'L
.	4B-)	.	8b-'
8BB-L)	.	8B-	8ccMJ
8r	(<8F	8r	.
(<8FFJ	.	8Am	.
4BB-)	.	8B-'L	.
.	.	8B-'	.
(<8FF	.	8AmJ	.
=62	=62	=62	=62
.	.	.	4b-
.	4B-)	.	.
.	.	.	8r
.	8r	.	4r
.	4r	.	.
4BB-)	.	4B-	.
8r	.	8r	.
4r	.	4r	.
=63:|!	=63:|!	=63:|!	=63:|!
!!linebreak:original
.	.	.	3...r
!!linebreak:original
.	3...r	.	.
!!linebreak:original
3...r	.	3...r	.
=64	=64	=64	=64
.	.	.	3...r
.	3...r	.	.
3...r	.	3...r	.
==	==	==	==
*-	*-	*-	*-
!!!system-decoration: [(s1,s2,s3,s4)]
!!!RDF**kern: > = above
!!!RDF**kern: < = below
